icons/pulse_oximeter_fill.svg

<svg width="48" height="48" viewBox="0 0 48 48" fill="none" xmlns="http://www.w3.org/2000/svg">
<path fill-rule="evenodd" clip-rule="evenodd" d="M26.4469 21.0661H32.9574C32.8726 21.3846 32.7664 21.8133 32.6577 22.3284H29.0893C27.6951 22.3284 26.5648 23.4587 26.5648 24.8529C26.5648 26.2471 27.6951 27.3774 29.0893 27.3774H32.0874C32.084 27.7918 32.0925 28.2136 32.1155 28.6395H30.3516C28.9574 28.6395 27.8271 29.7698 27.8271 31.164C27.8271 32.5583 28.9574 33.6885 30.3516 33.6885H33.2377C33.4291 34.121 33.6489 34.5431 33.9003 34.9508H32.8763C31.4821 34.9508 30.3518 36.081 30.3518 37.4753C30.3518 38.8695 31.4821 39.9998 32.8763 39.9998H44.0001L44.0132 12.6556L35.5832 9.1894C34.5165 8.75083 33.2883 9.09283 32.6019 10.0195C31.6057 11.3644 32.1742 13.2889 33.7412 13.8765L38.612 15.7031C38.7955 15.7719 38.9409 15.8825 39.0472 16.0172H26.7744C26.922 16.653 27.0001 17.3162 27.0001 18C27.0001 19.0826 26.8043 20.1138 26.4469 21.0661ZM24.7336 16.1253C23.697 16.4396 22.9425 17.4025 22.9425 18.5416C22.9425 19.5464 23.5294 20.414 24.3791 20.8204C24.7784 19.9576 25.0001 19.0034 25.0001 18C25.0001 17.3507 24.9073 16.722 24.7336 16.1253Z" fill="black"/>
<path fill-rule="evenodd" clip-rule="evenodd" d="M4.00012 12.5C4.00012 11.6716 4.70527 11 5.57512 11H17.6501C21.7094 11 25.0001 14.134 25.0001 18C25.0001 21.866 21.7094 25 17.6501 25H5.57512C4.70527 25 4.00012 24.3284 4.00012 23.5V21.4263C4.00012 20.9876 4.14435 20.5611 4.41059 20.2125L4.63966 19.9125C4.9059 19.5639 5.05012 19.1374 5.05012 18.6987V17.3013C5.05012 16.8626 4.9059 16.4361 4.63966 16.0875L4.41059 15.7875C4.14435 15.4389 4.00012 15.0124 4.00012 14.5737V12.5ZM22.0001 18C22.0001 19.1046 21.1047 20 20.0001 20C18.8956 20 18.0001 19.1046 18.0001 18C18.0001 16.8954 18.8956 16 20.0001 16C21.1047 16 22.0001 16.8954 22.0001 18ZM10.0001 16H14.0001V20H10.0001V16ZM8.00012 14H16.0001V22H8.00012V14Z" fill="black"/>
</svg>

<svg
  xmlns="http://www.w3.org/2000/svg"
  width="24"
  height="24"
  viewBox="0 0 24 24"
  fill="none"
  stroke="currentColor"
  stroke-width="2"
  stroke-linecap="round"
  stroke-linejoin="round"
>
  <path
    fill-rule="evenodd"
    d="M26.447 21.066h6.51c-.084.319-.19.747-.3 1.262H29.09a2.525 2.525 0 0 0 0 5.05h2.998q-.005.622.028 1.262h-1.763a2.525 2.525 0 0 0 0 5.048h2.886q.285.65.662 1.263h-1.024a2.524 2.524 0 1 0 0 5.049H44l.013-27.344-8.43-3.467a2.518 2.518 0 1 0-1.842 4.688l4.871 1.826c.183.069.329.18.435.314H26.774c.148.636.226 1.3.226 1.983a8.7 8.7 0 0 1-.553 3.066m-1.713-4.94a2.526 2.526 0 0 0-.355 4.694c.4-.862.621-1.817.621-2.82 0-.65-.093-1.278-.266-1.875"
    clip-rule="evenodd"
  />
  <path
    fill-rule="evenodd"
    d="M4 12.5c0-.828.705-1.5 1.575-1.5H17.65c4.06 0 7.35 3.134 7.35 7s-3.29 7-7.35 7H5.575C4.705 25 4 24.328 4 23.5v-2.074a2 2 0 0 1 .41-1.213l.23-.3a2 2 0 0 0 .41-1.214V17.3a2 2 0 0 0-.41-1.213l-.23-.3A2 2 0 0 1 4 14.574zM22 18a2 2 0 1 1-4 0 2 2 0 0 1 4 0m-12-2h4v4h-4zm-2-2h8v8H8z"
    clip-rule="evenodd"
  />
</svg>
